X: 79
T: Słysz, Pasterzu izraelski, nasz głos żałościwy,
C: Mikołaj Gomółka
%%abc-version 2.0
%%abcx-abcm2ps-target-version 5.9.1 (29 Sep 2008)
%%abc-creator hum2abc beta
%%abcx-conversion-date 2021/10/04 07:59:10
%%abc-edited-by Anna Matuszewska
%%abcx-initial-encoding-date 2020-02-15
%%humdrum-veritas 387181046
%%humdrum-veritas-data 4088744852
%%linebreak <none>
%%barnumbers 0
L: 1/4
M: 4/2
N: Derived from pl-wn--sd-xvi-qu-273--080_gomolka-mikolaj--slysz-pasterzu-izraelski-nasz-glos-zalosciwy.krn
%%staves [1 2 3 4]
V: 1 clef=treble
V: 2
V: 3 clef=alto
V: 4
K: F
[V:1] d4d3d | 
[V:2] B4B3B | 
[V:3] G4F3F | 
[V:4] G,4B,3B, [|] 
[V:1] c2A2B2A2 | 
[V:2] A2A,2B,A,B,C | 
[V:3] F2>E2DCDE | 
[V:4] F,2F,2G,2G,2 [|] 
[V:1] B4A4 | 
[V:2] D2D4D4 | 
[V:3] F2F,2>G,2A,4 | 
[V:4] D,2D,2>E,2F,4 [|] 
[V:1] B2G2G2F2 | 
[V:2] B,4A,G, | 
[V:3] G,2>A,2B,C | 
[V:4] G,2_E,2E,2 [|] 
[V:1] F8 | 
[V:2] A,8 | 
[V:3] D8 | 
[V:4] D,8 [|] 
[V:1] A4_B2c2c2 [I:setbarnb 8]| 
[V:2] ^F4G2A2CD | 
[V:3] D4D2CDEF | 
[V:4] D,4G,2A,B,C2 [|] 
[V:1] B2>c2def2 | 
[V:2] EFG2D2A2 | 
[V:3] G4G2F2 | 
[V:4] G,2>A,2B,CD2 [|] 
[V:1] e2d2d2^c2 | 
[V:2] B2G2A3G | 
[V:3] GFFE/D/E4 | 
[V:4] G,2B,2A,4 [|] 
[V:1] d2f4e2 | 
[V:2] F2AB2FcB | 
[V:3] D2D2D2G2 | 
[V:4] D,2D2B,2C2 [|] 
[V:1] d4c2d4 | 
[V:2] A2A2A2F2 | 
[V:3] F4E2D2 | 
[V:4] D2D,2A,2B,2 [|] 
[V:1] c2B4 | 
[V:2] B2AGFED2 | 
[V:3] B,2C2DCDE | 
[V:4] G,2A,2B,2B,,C, [|] 
[V:1] A4B2A2 | 
[V:2] AGFEDEF2 | 
[V:3] FEDCB,CDC | 
[V:4] D,E,F,2G,2D,2 [|] 
[V:1] G2G4F2 | 
[V:2] E2E2D4 | 
[V:3] B,A,/B,/CB,A,G,A,2 | 
[V:4] _E,2C,2D,4 [|] 
[V:1] G8 | 
[V:2] D8 | 
[V:3] G,8 | 
[V:4] G,8 | 


